X: 1
T: Early One Morning [F]
N: Dance by Scott Higgs
N: Also for "Winter Solstice", with A repeated
M: 2/4
L: 1/8
K: F
[| "F"F2 FF | FA cc | "Gm"dB GF | "C7"EG CE | "F"F2 FF | FA cc | "Bb"dB "C7"GE | "F"F4 |]
|: "C7"G2 AB | "F"cA F2 |  "C7"G2 AB | "F"cA F2 | "F"FA cf | "Bb"ed cB | "C7"AG FE | "F"F4 :|
